app/images/iconos_v2/GCBA-compromisos-icons-24.svg

<svg xmlns="http://www.w3.org/2000/svg" width="750" height="750" viewBox="585 165 750 750"><path fill="#5A5B5B" d="M1088.267 218.255c-76.714 0-138.887 62.173-138.887 138.888 0 76.706 138.887 289.158 138.887 289.158s138.88-212.45 138.88-289.157c0-76.714-62.174-138.888-138.88-138.888zm0 219.266c-45.117 0-81.69-36.566-81.69-81.684 0-45.117 36.573-81.69 81.69-81.69 45.118 0 81.685 36.574 81.685 81.69 0 45.118-36.567 81.685-81.685 81.685z"/><g fill="#5A5B5B"><path d="M1029.01 328.116V311.69h58.86v14.436l-22.024 21.03c11.945 1.992 23.395 8.214 23.395 24.517 0 16.55-11.944 28.623-31.36 28.623-15.68 0-26.506-6.223-33.974-15.06l13.19-12.568c5.975 6.72 12.198 10.454 21.034 10.454 7.218 0 12.318-4.106 12.318-10.702 0-7.218-6.096-11.2-17.048-11.2h-7.964l-2.986-12.195 20.78-20.908h-34.22zM1124.46 311.067h13.065V398.8h-18.916v-68.32l-15.185 3.733-3.98-15.68 25.014-7.466z"/></g><path fill="#5A5B5B" d="M1157.427 690.853h-154.855V587.596h-309.72v274.15H899.33v-119.28h51.62v119.28h206.477V690.852zM796.095 794.087h-51.62v-51.62h51.62v51.62zm0-103.234h-51.62v-51.636h51.62v51.636zm154.856 0h-51.62v-51.636h51.62v51.636zm154.864 103.234h-51.63v-51.62h51.63v51.62z"/></svg>

<?xml version="1.0" encoding="utf-8"?>
<!-- Generator: Adobe Illustrator 15.1.0, SVG Export Plug-In . SVG Version: 6.00 Build 0)  -->
<!DOCTYPE svg PUBLIC "-//W3C//DTD SVG 1.1//EN" "http://www.w3.org/Graphics/SVG/1.1/DTD/svg11.dtd">
<svg version="1.1" id="Layer_1" xmlns="http://www.w3.org/2000/svg" xmlns:xlink="http://www.w3.org/1999/xlink" x="0px" y="0px" width="750px" height="750px"
	 viewBox="585 165 750 750" enable-background="new 585 165 750 750" xml:space="preserve">

	<g>
		<g>
			<path fill="#5A5B5B" d="M1088.267,218.255c-76.714,0-138.887,62.173-138.887,138.888c0,76.706,138.887,289.158,138.887,289.158
				s138.88-212.452,138.88-289.158C1227.146,280.429,1164.973,218.255,1088.267,218.255z M1088.267,437.521
				c-45.117,0-81.691-36.567-81.691-81.685c0-45.117,36.574-81.691,81.691-81.691c45.118,0,81.685,36.575,81.685,81.691
				C1169.951,400.954,1133.385,437.521,1088.267,437.521z"/>
			<g>
				<path fill="#5A5B5B" d="M1029.009,328.116v-16.426h58.862v14.436l-22.025,21.031c11.945,1.991,23.395,8.213,23.395,24.516
					c0,16.551-11.945,28.623-31.36,28.623c-15.68,0-26.507-6.223-33.975-15.059l13.191-12.569
					c5.974,6.72,12.197,10.454,21.033,10.454c7.218,0,12.318-4.106,12.318-10.702c0-7.218-6.096-11.2-17.048-11.2h-7.964
					l-2.986-12.195l20.78-20.908H1029.009z"/>
				<path fill="#5A5B5B" d="M1124.459,311.067h13.066v87.734h-18.916V330.48l-15.184,3.733l-3.981-15.68L1124.459,311.067z"/>
			</g>
			<g>
				<path fill="#5A5B5B" d="M1157.427,690.853h-154.855V587.596H692.853v274.149H899.33V742.466h51.621v119.279h206.476V690.853z
					 M796.095,794.087h-51.621v-51.621h51.621V794.087z M796.095,690.853h-51.621v-51.636h51.621V690.853z M950.951,690.853H899.33
					v-51.636h51.621V690.853z M1105.814,794.087h-51.63v-51.621h51.63V794.087z"/>
			</g>
		</g>
	</g>


</svg>
